; LightBurn 1.0.02
; GRBL device profile, absolute coords
; Bounds: X14.37 Y57.01 to X125.63 Y212.99
;
G00 ;
G17 ; XY plane
G40 ; compens off
G21 ; mm
G54 ; coord sys 1
G90 ; ABS
M4  ; spingle on ccv
; Cut @ 200 mm/min, 10% power
M8  ;  cooleant on
G0X66.627Y83.296
; Layer C00
G1Y96.966S900F200
G1X59.748
G1Y96.875
G1X59.792Y96.612
G1X59.82Y96.421
G1X59.857Y96.192
G1X59.904Y95.928
G1X59.961Y95.63
G1X60.029Y95.3
G1X60.109Y94.941
G1X60.201Y94.554
G1X60.308Y94.141
G1X60.429Y93.703
G1X60.566Y93.243
G1X60.719Y92.763
G1X60.889Y92.264
G1X61.283Y91.218
G1X61.757Y90.121
G1X62.315Y88.987
G1X62.966Y87.832
G1X63.328Y87.251
G1X63.716Y86.67
G1X64.13Y86.091
G1X64.571Y85.517
G1X65.041Y84.948
G1X65.539Y84.387
G1X66.068Y83.836
G1X66.627Y83.296
G0X73.506Y83.296
; Layer C00
G1Y96.966
G1X80.385
G1Y96.875
G1X80.341Y96.612
G1X80.312Y96.421
G1X80.275Y96.192
G1X80.229Y95.928
G1X80.172Y95.63
G1X80.104Y95.3
G1X80.024Y94.941
G1X79.931Y94.554
G1X79.825Y94.141
G1X79.703Y93.703
G1X79.567Y93.243
G1X79.414Y92.763
G1X79.244Y92.264
G1X78.849Y91.218
G1X78.376Y90.121
G1X77.817Y88.987
G1X77.167Y87.832
G1X76.804Y87.251
G1X76.417Y86.67
G1X76.003Y86.091
G1X75.561Y85.517
G1X75.092Y84.948
G1X74.593Y84.387
G1X74.065Y83.836
G1X73.506Y83.296
G0X73.418Y103.581
; Layer C00
G1Y103.661
G1X73.442Y103.89
G1X73.461Y104.053
G1X73.486Y104.246
G1X73.52Y104.467
G1X73.564Y104.713
G1X73.684Y105.268
G1X73.856Y105.895
G1X74.089Y106.573
G1X74.392Y107.282
G1X74.774Y108.004
G1X75.244Y108.719
G1X75.515Y109.068
G1X75.812Y109.408
G1X76.135Y109.737
G1X76.486Y110.052
G1X76.865Y110.35
G1X77.275Y110.63
G1X77.716Y110.889
G1X78.19Y111.124
G1X78.697Y111.334
G1X79.238Y111.515
G1X79.815Y111.666
G1X80.429Y111.783
G1X80.639Y111.067
G1X80.836Y110.297
G1X81.016Y109.455
G1X81.173Y108.525
G1X81.242Y108.022
G1X81.304Y107.49
G1X81.357Y106.927
G1X81.403Y106.332
G1X81.439Y105.702
G1X81.466Y105.035
G1X81.482Y104.328
G1Y103.581
G1X73.418
G0X66.715Y103.581
; Layer C00
G1Y103.661
G1X66.691Y103.89
G1X66.672Y104.053
G1X66.646Y104.246
G1X66.612Y104.467
G1X66.569Y104.713
G1X66.448Y105.269
G1X66.276Y105.895
G1X66.044Y106.573
G1X65.741Y107.282
G1X65.359Y108.004
G1X64.889Y108.719
G1X64.618Y109.068
G1X64.321Y109.408
G1X63.998Y109.737
G1X63.647Y110.052
G1X63.267Y110.35
G1X62.857Y110.63
G1X62.416Y110.889
G1X61.943Y111.124
G1X61.436Y111.334
G1X60.895Y111.515
G1X60.317Y111.666
G1X59.703Y111.783
G1X59.493Y111.067
G1X59.296Y110.297
G1X59.117Y109.455
G1X58.959Y108.525
G1X58.89Y108.022
G1X58.829Y107.49
G1X58.775Y106.927
G1X58.73Y106.332
G1X58.694Y105.702
G1X58.667Y105.035
G1X58.651Y104.328
G1Y103.581
G1X66.715
G0X70.066Y113.15
; Layer C00
G1X74.536Y116.173
G1X75.796Y117.019
G1X76.903Y117.758
G1X77.739Y118.309
G1X76.875Y119.689
G1X76.055Y121.137
G1X75.279Y122.63
G1X74.55Y124.148
G1X73.869Y125.668
G1X73.238Y127.169
G1X72.659Y128.63
G1X72.133Y130.028
G1X71.891Y130.697
G1X71.663Y131.343
G1X71.449Y131.962
G1X71.25Y132.552
G1X71.065Y133.11
G1X70.896Y133.634
G1X70.741Y134.121
G1X70.602Y134.569
G1X70.478Y134.973
G1X70.37Y135.333
G1X70.202Y135.905
G1X70.066Y136.389
G1X69.854Y135.644
G1X69.655Y134.973
G1X69.531Y134.569
G1X69.392Y134.121
G1X69.237Y133.634
G1X69.067Y133.11
G1X68.883Y132.552
G1X68.683Y131.962
G1X68.47Y131.343
G1X68.241Y130.697
G1X67.999Y130.028
G1X67.474Y128.63
G1X66.895Y127.169
G1X66.264Y125.668
G1X65.583Y124.148
G1X64.854Y122.63
G1X64.078Y121.137
G1X63.257Y119.689
G1X62.393Y118.309
G1X62.571Y118.193
G1X63.756Y117.407
G1X65.596Y116.173
G1X66.891Y115.299
G1X70.066Y113.15
G0X53.133Y113.459
; Layer C00
G1X52.978
G1X52.78Y113.476
G1X52.541Y113.5
G1X52.264Y113.535
G1X51.952Y113.582
G1X51.608Y113.642
G1X51.234Y113.717
G1X50.834Y113.808
G1X50.41Y113.916
G1X49.965Y114.041
G1X49.501Y114.185
G1X49.022Y114.349
G1X48.03Y114.742
G1X47.009Y115.228
G1X46.495Y115.509
G1X45.983Y115.816
G1X45.474Y116.151
G1X44.973Y116.514
G1X44.481Y116.907
G1X44.002Y117.332
G1X43.539Y117.788
G1X43.093Y118.277
G1X42.669Y118.801
G1X42.268Y119.359
G1X41.894Y119.954
G1X41.55Y120.587
G1X41.237Y121.258
G1X40.96Y121.969
G1X40.72Y122.72
G1X40.521Y123.513
G1X36.905
G1Y103.493
G1X51.722
G1Y103.869
G1X51.744Y104.418
G1X51.765Y104.899
G1X51.796Y105.46
G1X51.84Y106.094
G1X51.898Y106.789
G1X51.973Y107.538
G1X52.066Y108.329
G1X52.181Y109.154
G1X52.317Y110.004
G1X52.479Y110.869
G1X52.667Y111.739
G1X52.885Y112.606
G1X53.133Y113.459
G0X40.521Y130.216
; Layer C00
G1X36.905
G1Y179.428
G1X37.057Y179.233
G1X37.311Y178.896
G1X37.479Y178.669
G1X37.67Y178.405
G1X37.884Y178.104
G1X38.118Y177.767
G1X38.371Y177.397
G1X38.64Y176.994
G1X38.924Y176.558
G1X39.221Y176.092
G1X39.528Y175.597
G1X39.845Y175.073
G1X40.168Y174.522
G1X40.829Y173.343
G1X41.496Y172.068
G1X42.152Y170.708
G1X42.784Y169.271
G1X43.375Y167.765
G1X43.911Y166.202
G1X44.376Y164.589
G1X44.754Y162.936
G1X45.859Y153.696
G1X47.665Y138.77
G1X47.412Y138.652
G1X47.278Y138.585
G1X47.119Y138.502
G1X46.937Y138.404
G1X46.735Y138.289
G1X46.274Y138.012
G1X45.753Y137.668
G1X45.187Y137.256
G1X44.589Y136.775
G1X43.976Y136.222
G1X43.363Y135.596
G1X42.764Y134.896
G1X42.195Y134.119
G1X41.672Y133.265
G1X41.208Y132.33
G1X41.003Y131.833
G1X40.819Y131.314
G1X40.658Y130.775
G1X40.521Y130.216
G0X87Y113.459
; Layer C00
G1X87.155
G1X87.353Y113.476
G1X87.592Y113.5
G1X87.869Y113.535
G1X88.181Y113.582
G1X88.525Y113.642
G1X88.899Y113.717
G1X89.299Y113.808
G1X89.723Y113.916
G1X90.168Y114.041
G1X90.631Y114.185
G1X91.11Y114.349
G1X92.103Y114.742
G1X93.124Y115.228
G1X93.637Y115.509
G1X94.15Y115.816
G1X94.658Y116.151
G1X95.16Y116.514
G1X95.651Y116.907
G1X96.13Y117.332
G1X96.594Y117.788
G1X97.039Y118.277
G1X97.464Y118.801
G1X97.864Y119.359
G1X98.238Y119.954
G1X98.583Y120.587
G1X98.895Y121.258
G1X99.173Y121.969
G1X99.412Y122.72
G1X99.612Y123.513
G1X103.227
G1Y103.493
G1X88.411
G1Y103.869
G1X88.389Y104.418
G1X88.368Y104.898
G1X88.336Y105.46
G1X88.292Y106.094
G1X88.234Y106.789
G1X88.159Y107.537
G1X88.066Y108.329
G1X87.952Y109.154
G1X87.815Y110.004
G1X87.654Y110.869
G1X87.465Y111.739
G1X87.248Y112.606
G1X87Y113.459
G0X99.612Y130.215
; Layer C00
G1X103.227
G1Y179.428
G1X103.075Y179.233
G1X102.821Y178.896
G1X102.654Y178.669
G1X102.463Y178.405
G1X102.249Y178.104
G1X102.015Y177.767
G1X101.762Y177.397
G1X101.493Y176.993
G1X101.209Y176.558
G1X100.912Y176.092
G1X100.605Y175.597
G1X100.288Y175.073
G1X99.964Y174.522
G1X99.303Y173.343
G1X98.637Y172.068
G1X97.98Y170.708
G1X97.349Y169.27
G1X96.758Y167.765
G1X96.222Y166.202
G1X95.757Y164.589
G1X95.378Y162.936
G1X94.273Y153.696
G1X92.468Y138.77
G1X92.721Y138.652
G1X92.855Y138.585
G1X93.014Y138.502
G1X93.195Y138.404
G1X93.398Y138.289
G1X93.858Y138.012
G1X94.379Y137.668
G1X94.946Y137.256
G1X95.544Y136.775
G1X96.157Y136.222
G1X96.77Y135.596
G1X97.368Y134.896
G1X97.937Y134.119
G1X98.461Y133.264
G1X98.925Y132.33
G1X99.129Y131.832
G1X99.313Y131.314
G1X99.475Y130.775
G1X99.612Y130.215
G0X93.022Y129.158
; Layer C00
G1X93.151Y128.775
G1X93.254Y128.372
G1X93.33Y127.949
G1X93.378Y127.505
G1X93.394Y127.04
G1X93.38Y126.574
G1X93.342Y126.128
G1X93.279Y125.701
G1X93.192Y125.292
G1X93.085Y124.902
G1X92.956Y124.53
G1X92.809Y124.176
G1X92.644Y123.839
G1X92.265Y123.218
G1X91.831Y122.663
G1X91.351Y122.172
G1X90.836Y121.743
G1X90.296Y121.373
G1X89.742Y121.06
G1X89.183Y120.803
G1X88.631Y120.597
G1X88.095Y120.441
G1X87.587Y120.333
G1X87.115Y120.269
G1X86.691Y120.249
G1X86.316
G1X85.985Y120.264
G1X85.693Y120.281
G1X85.44Y120.304
G1X85.221Y120.331
G1X85.035Y120.361
G1X84.879Y120.392
G1X84.751Y120.425
G1X84.565Y120.49
G1X84.458Y120.547
G1X84.41Y120.587
G1X84.398Y120.602
G1X84.142Y120.975
G1X83.953Y121.262
G1X83.718Y121.628
G1X83.441Y122.071
G1X83.127Y122.591
G1X82.779Y123.186
G1X82.4Y123.854
G1X81.994Y124.595
G1X81.566Y125.408
G1X81.119Y126.29
G1X80.657Y127.241
G1X80.183Y128.258
G1X79.702Y129.342
G1X79.216Y130.491
G1X78.731Y131.702
G1X78.25Y132.976
G1X77.776Y134.31
G1X77.314Y135.704
G1X76.867Y137.156
G1X76.439Y138.665
G1X76.033Y140.229
G1X75.654Y141.847
G1X75.306Y143.518
G1X74.991Y145.241
G1X74.715Y147.014
G1X74.48Y148.835
G1X74.291Y150.705
G1X74.151Y152.62
G1X74.065Y154.581
G1X74.035Y156.585
G1X74.046Y159.158
G1X74.075Y161.697
G1X74.121Y164.195
G1X74.18Y166.646
G1X74.25Y169.044
G1X74.328Y171.383
G1X74.412Y173.655
G1X74.498Y175.856
G1X74.746Y181.96
G1X74.816Y183.808
G1X74.848Y184.694
G1X74.876Y185.553
G1X74.9Y186.384
G1X74.921Y187.187
G1X74.938Y187.961
G1X74.951Y188.704
G1Y189.418
G1Y190.231
G1Y190.585
G1Y190.805
G1X74.938Y191.052
G1X74.923Y191.326
G1X74.902Y191.623
G1X74.875Y191.944
G1X74.798Y192.651
G1X74.686Y193.436
G1X74.53Y194.289
G1X74.324Y195.2
G1X74.063Y196.16
G1X73.737Y197.157
G1X73.341Y198.183
G1X72.868Y199.228
G1X72.311Y200.281
G1X71.663Y201.331
G1X71.303Y201.853
G1X70.917Y202.371
G1X70.505Y202.883
G1X70.066Y203.389
G1X69.627Y202.883
G1X69.216Y202.371
G1X68.83Y201.853
G1X68.47Y201.332
G1X67.822Y200.281
G1X67.264Y199.228
G1X66.791Y198.184
G1X66.396Y197.158
G1X66.07Y196.16
G1X65.808Y195.2
G1X65.603Y194.289
G1X65.447Y193.436
G1X65.334Y192.651
G1X65.257Y191.944
G1X65.23Y191.623
G1X65.209Y191.326
G1X65.194Y191.053
G1X65.184Y190.805
G1Y190.585
G1X65.172Y190.231
G1Y189.418
G1Y188.705
G1X65.194Y187.961
G1X65.211Y187.187
G1X65.232Y186.384
G1X65.257Y185.553
G1X65.285Y184.694
G1X65.316Y183.809
G1X65.386Y181.96
G1X65.635Y175.856
G1X65.721Y173.656
G1X65.805Y171.383
G1X65.883Y169.045
G1X65.953Y166.647
G1X66.012Y164.195
G1X66.058Y161.697
G1X66.087Y159.158
G1X66.098Y156.585
G1X66.068Y154.581
G1X65.981Y152.62
G1X65.841Y150.705
G1X65.652Y148.835
G1X65.418Y147.014
G1X65.141Y145.241
G1X64.827Y143.518
G1X64.478Y141.847
G1X64.099Y140.229
G1X63.694Y138.665
G1X63.266Y137.156
G1X62.819Y135.704
G1X62.356Y134.311
G1X61.883Y132.976
G1X61.401Y131.703
G1X60.916Y130.491
G1X60.431Y129.342
G1X59.95Y128.259
G1X59.476Y127.241
G1X59.014Y126.29
G1X58.566Y125.408
G1X58.138Y124.596
G1X57.733Y123.855
G1X57.354Y123.186
G1X57.005Y122.591
G1X56.691Y122.071
G1X56.415Y121.628
G1X56.18Y121.262
G1X55.991Y120.975
G1X55.851Y120.769
G1X55.723Y120.587
G1X55.674Y120.547
G1X55.567Y120.491
G1X55.382Y120.426
G1X55.253Y120.393
G1X55.097Y120.361
G1X54.911Y120.331
G1X54.693Y120.304
G1X54.439Y120.282
G1X54.148Y120.264
G1X53.816Y120.253
G1X53.442
G1X53.018Y120.27
G1X52.546Y120.333
G1X52.037Y120.441
G1X51.501Y120.597
G1X50.949Y120.803
G1X50.391Y121.061
G1X49.836Y121.373
G1X49.297Y121.743
G1X48.782Y122.172
G1X48.302Y122.663
G1X47.867Y123.218
G1X47.489Y123.84
G1X47.324Y124.176
G1X47.176Y124.53
G1X47.048Y124.902
G1X46.94Y125.292
G1X46.854Y125.701
G1X46.791Y126.128
G1X46.752Y126.574
G1X46.739Y127.04
G1X46.755Y127.505
G1X46.802Y127.949
G1X46.878Y128.372
G1X46.982Y128.775
G1X47.11Y129.158
G1X47.263Y129.521
G1X47.437Y129.866
G1X47.631Y130.192
G1X48.07Y130.791
G1X48.567Y131.32
G1X49.105Y131.783
G1X49.671Y132.183
G1X50.25Y132.524
G1X50.826Y132.808
G1X51.384Y133.04
G1X51.911Y133.223
G1X52.39Y133.359
G1X52.808Y133.452
G1X53.148Y133.505
G1X53.397Y133.522
G1X53.77
G1X54.092Y133.495
G1X54.365Y133.467
G1X54.588Y133.434
G1X54.762Y133.402
G1X54.886Y133.374
G1X54.985Y133.346
G1X51.545Y163.509
G1X51.32Y164.546
G1X51.077Y165.562
G1X50.817Y166.557
G1X50.542Y167.532
G1X49.946Y169.419
G1X49.295Y171.224
G1X48.594Y172.949
G1X47.848Y174.594
G1X47.063Y176.162
G1X46.243Y177.654
G1X45.395Y179.069
G1X44.523Y180.411
G1X43.633Y181.68
G1X42.73Y182.877
G1X41.819Y184.004
G1X40.906Y185.062
G1X39.995Y186.051
G1X39.093Y186.974
G1X38.205Y187.831
G1X37.336Y188.624
G1X36.49Y189.354
G1X35.674Y190.023
G1X34.893Y190.63
G1X34.152Y191.179
G1X33.457Y191.669
G1X32.812Y192.102
G1X32.223Y192.48
G1X31.695Y192.803
G1X31.234Y193.074
G1X30.845Y193.292
G1X30.533Y193.46
G1X30.304Y193.578
G1X30.114Y193.671
G1Y96.966
G1X52.516
G1X52.566Y96.622
G1X52.609Y96.364
G1X52.668Y96.039
G1X52.745Y95.651
G1X52.841Y95.204
G1X52.957Y94.701
G1X53.096Y94.145
G1X53.259Y93.541
G1X53.447Y92.89
G1X53.662Y92.197
G1X53.906Y91.464
G1X54.18Y90.696
G1X54.486Y89.896
G1X54.825Y89.067
G1X55.2Y88.213
G1X55.611Y87.336
G1X56.06Y86.441
G1X56.549Y85.53
G1X57.079Y84.608
G1X57.652Y83.677
G1X58.27Y82.742
G1X58.934Y81.804
G1X59.646Y80.868
G1X60.407Y79.938
G1X61.219Y79.016
G1X62.083Y78.106
G1X63.002Y77.211
G1X63.976Y76.335
G1X65.007Y75.481
G1X66.098Y74.653
G1X66.693Y74.126
G1X66.983Y73.864
G1X67.307Y73.564
G1X67.655Y73.237
G1X68.016Y72.889
G1X68.733Y72.164
G1X69.372Y71.453
G1X69.635Y71.123
G1X69.845Y70.821
G1X69.993Y70.554
G1X70.066Y70.331
G1X70.14Y70.554
G1X70.288Y70.821
G1X70.498Y71.123
G1X70.761Y71.453
G1X71.4Y72.164
G1X72.117Y72.889
G1X72.478Y73.237
G1X72.826Y73.564
G1X73.15Y73.864
G1X73.44Y74.126
G1X73.684Y74.344
G1X74.024Y74.643
G1X75.126Y75.481
G1X76.157Y76.335
G1X77.131Y77.211
G1X78.05Y78.105
G1X78.914Y79.016
G1X79.726Y79.938
G1X80.487Y80.868
G1X81.199Y81.804
G1X81.863Y82.741
G1X82.48Y83.677
G1X83.054Y84.608
G1X83.584Y85.53
G1X84.073Y86.441
G1X84.522Y87.336
G1X84.933Y88.212
G1X85.307Y89.067
G1X85.647Y89.896
G1X85.953Y90.696
G1X86.227Y91.464
G1X86.47Y92.196
G1X86.686Y92.89
G1X86.874Y93.54
G1X87.036Y94.145
G1X87.175Y94.701
G1X87.292Y95.204
G1X87.388Y95.651
G1X87.464Y96.039
G1X87.523Y96.363
G1X87.567Y96.622
G1X87.596Y96.811
G1X87.617Y96.966
G1X110.018
G1Y193.671
G1X109.599Y193.46
G1X109.287Y193.292
G1X108.898Y193.074
G1X108.437Y192.803
G1X107.91Y192.48
G1X107.321Y192.102
G1X106.676Y191.669
G1X105.98Y191.178
G1X105.239Y190.63
G1X104.458Y190.022
G1X103.642Y189.354
G1X102.797Y188.624
G1X101.928Y187.831
G1X101.039Y186.974
G1X100.137Y186.051
G1X99.227Y185.061
G1X98.314Y184.004
G1X97.403Y182.877
G1X96.5Y181.68
G1X95.61Y180.411
G1X94.738Y179.069
G1X93.889Y177.653
G1X93.07Y176.162
G1X92.284Y174.594
G1X91.539Y172.948
G1X90.837Y171.224
G1X90.186Y169.418
G1X89.591Y167.532
G1X89.316Y166.557
G1X89.056Y165.562
G1X88.813Y164.546
G1X88.587Y163.509
G1X85.148Y133.346
G1X85.247Y133.374
G1X85.371Y133.402
G1X85.545Y133.434
G1X85.768Y133.467
G1X86.041Y133.495
G1X86.363Y133.515
G1X86.735
G1X86.984
G1X87.325Y133.452
G1X87.743Y133.359
G1X88.222Y133.223
G1X88.748Y133.04
G1X89.307Y132.808
G1X89.883Y132.524
G1X90.461Y132.183
G1X91.027Y131.783
G1X91.566Y131.32
G1X92.062Y130.791
G1X92.502Y130.192
G1X92.696Y129.866
G1X92.87Y129.521
G1X93.022Y129.158
G0X125.629Y94.321
; Layer C00
G1Y94.195
G1Y94.041
G1Y93.831
G1X125.612Y93.568
G1X125.591Y93.255
G1X125.559Y92.893
G1X125.515Y92.488
G1X125.455Y92.04
G1X125.377Y91.554
G1X125.28Y91.032
G1X125.161Y90.477
G1X125.018Y89.892
G1X124.848Y89.281
G1X124.65Y88.645
G1X124.421Y87.988
G1X124.16Y87.312
G1X123.863Y86.622
G1X123.528Y85.919
G1X123.155Y85.207
G1X122.739Y84.488
G1X122.279Y83.766
G1X121.774Y83.043
G1X121.219Y82.322
G1X120.615Y81.606
G1X119.957Y80.899
G1X119.245Y80.203
G1X118.475Y79.521
G1X117.646Y78.855
G1X116.756Y78.21
G1X115.801Y77.588
G1X114.781Y76.991
G1X113.663Y76.503
G1X111.078Y75.366
G1X106.478Y73.33
G1X101.258Y71.006
G1X95.691Y68.519
G1X88.207Y65.167
G1X81.249Y62.045
G1X70.066Y57.014
G1X57.181Y62.787
G1X44.351Y68.518
G1X38.768Y71.005
G1X33.534Y73.329
G1X30.375Y74.726
G1X28.238Y75.668
G1X25.219Y76.99
G1X24.199Y77.587
G1X23.244Y78.209
G1X22.354Y78.854
G1X21.525Y79.52
G1X20.755Y80.202
G1X20.043Y80.898
G1X19.385Y81.605
G1X18.781Y82.321
G1X18.226Y83.042
G1X17.721Y83.765
G1X17.261Y84.487
G1X16.845Y85.206
G1X16.472Y85.918
G1X16.137Y86.621
G1X15.84Y87.311
G1X15.579Y87.987
G1X15.35Y88.644
G1X15.152Y89.28
G1X14.982Y89.891
G1X14.839Y90.476
G1X14.72Y91.031
G1X14.623Y91.553
G1X14.545Y92.039
G1X14.485Y92.487
G1X14.441Y92.892
G1X14.409Y93.254
G1X14.388Y93.567
G1X14.376Y93.83
G1Y94.04
G1Y94.194
G1Y212.986
G1X125.629
G1Y94.321
M9 ; coolant off
G1S0 ; ???
M5   ; laser off
G90  ; ABS
; return to user-defined finish pos
G0 X0 Y0
M2
