%
(Header)
(Generated by gcodetools from Inkscape.)
(Using default header. To add your own header create file "header" in the output dir.)
(Header end.)
G21 (All units in mm)

(Start cutting path id: path11)
(Change tool to Default tool)

G00 Z5.000000
G00 X57.149900 Y80.967000

G01 Z-0.125000 F100.0(Penetrate)
G02 X53.764788 Y70.985906 Z-0.125000 I-80.636888 J21.783610 F200.000000
G02 X49.477010 Y62.887200 Z-0.125000 I-43.840665 J18.026586
G02 X51.887559 Y61.290482 Z-0.125000 I-90.968149 J-139.951610
G02 X57.149900 Y57.727800 Z-0.125000 I-1237.337921 J-1833.306276
G02 X62.412226 Y61.290410 Z-0.125000 I1245.686460 J-1834.333765
G02 X64.822790 Y62.887200 Z-0.125000 I93.618894 J-138.712091
G02 X60.535006 Y70.985901 Z-0.125000 I39.552480 J26.125115
G02 X57.149900 Y80.967000 Z-0.125000 I77.251225 J31.764464
G01 X57.149900 Y80.967000 Z-0.125000
G00 Z5.000000

(End cutting path id: path11)


(Start cutting path id: path8)
(Change tool to Default tool)

G00 Z5.000000
G00 X40.216600 Y58.037000

G01 Z-0.125000 F100.0(Penetrate)
G02 X37.588558 Y58.295257 Z-0.125000 I-0.000000 J13.500695 F200.000000
G02 X27.604700 Y68.091200 Z-0.125000 I2.484171 J12.517485
G01 X23.989000 Y68.091200 Z-0.125000
G01 X23.989000 Y48.071200 Z-0.125000
G01 X38.805600 Y48.071200 Z-0.125000
G02 X39.155787 Y53.274921 Z-0.125000 I38.838310 J-0.000000
G02 X40.216600 Y58.036990 Z-0.125000 I28.542674 J-3.859064
G01 X40.216600 Y58.037000 Z-0.125000
G00 Z5.000000

(End cutting path id: path8)


(Start cutting path id: path9)
(Change tool to Default tool)

G00 Z5.000000
G00 X45.728700 Y48.159000

G01 Z-0.125000 F100.0(Penetrate)
G01 X53.798490 Y48.159000 Z-0.125000 F200.000000
G03 X52.137925 Y53.047348 Z-0.125000 I-8.991269 J-0.328101
G03 X46.787000 Y56.361090 Z-0.125000 I-6.617871 J-4.709205
G03 X46.179469 Y53.768746 Z-0.125000 I18.226092 J-5.638752
G03 X45.728700 Y48.159000 Z-0.125000 I34.680791 J-5.609746
G01 X45.728700 Y48.159000 Z-0.125000
G00 Z5.000000

(End cutting path id: path9)


(Start cutting path id: path10)
(Change tool to Default tool)

G00 Z5.000000
G00 X53.710400 Y41.544000

G01 Z-0.125000 F100.0(Penetrate)
G01 X46.831210 Y41.544000 Z-0.125000 F200.000000
G03 X48.855942 Y34.389858 Z-0.125000 I20.434473 J1.919684
G03 X53.710400 Y27.874000 Z-0.125000 I20.093058 J9.903503
G01 X53.710400 Y41.544000 Z-0.125000
G01 X53.710400 Y41.544000 Z-0.125000
G00 Z5.000000

(End cutting path id: path10)


(Start cutting path id: path6)
(Change tool to Default tool)

G00 Z5.000000
G00 X60.589500 Y41.544000

G01 Z-0.125000 F100.0(Penetrate)
G01 X67.468590 Y41.544000 Z-0.125000 F200.000000
G02 X65.443858 Y34.389858 Z-0.125000 I-20.434473 J1.919684
G02 X60.589400 Y27.874000 Z-0.125000 I-20.093058 J9.903503
G01 X60.589500 Y41.544000 Z-0.125000
G01 X60.589500 Y41.544000 Z-0.125000
G00 Z5.000000

(End cutting path id: path6)


(Start cutting path id: path5)
(Change tool to Default tool)

G00 Z5.000000
G00 X68.571100 Y48.159000

G01 Z-0.125000 F100.0(Penetrate)
G01 X60.501410 Y48.159000 Z-0.125000 F200.000000
G02 X62.161991 Y53.047256 Z-0.125000 I8.990911 J-0.328102
G02 X67.512900 Y56.361090 Z-0.125000 I6.618299 J-4.709667
G02 X68.120398 Y53.768746 Z-0.125000 I-18.222933 J-5.637775
G02 X68.571100 Y48.159000 Z-0.125000 I-34.686043 J-5.609746
G01 X68.571100 Y48.159000 Z-0.125000
G00 Z5.000000

(End cutting path id: path5)


(Start cutting path id: path4)
(Change tool to Default tool)

G00 Z5.000000
G00 X74.083200 Y58.037000

G01 Z-0.125000 F100.0(Penetrate)
G03 X76.711242 Y58.295257 Z-0.125000 I-0.000000 J13.500695 F200.000000
G03 X86.695100 Y68.091200 Z-0.125000 I-2.484171 J12.517485
G01 X90.310900 Y68.091200 Z-0.125000
G01 X90.310900 Y48.071000 Z-0.125000
G01 X75.494200 Y48.071000 Z-0.125000
G03 X75.144013 Y53.274874 Z-0.125000 I-38.840618 J-0.000000
G03 X74.083200 Y58.036990 Z-0.125000 I-28.542276 J-3.858892
G01 X74.083200 Y58.037000 Z-0.125000
G00 Z5.000000

(End cutting path id: path4)


(Start cutting path id: path1)
(Change tool to Default tool)

G00 Z5.000000
G00 X57.149900 Y1.592000

G01 Z-0.125000 F100.0(Penetrate)
G03 X27.269023 Y14.969270 Z-0.125000 I-7120.011745 J-15863.946115 F200.000000
G03 X12.303000 Y21.568000 Z-0.125000 I-707.290172 J-1583.874139
G02 X3.782665 Y29.816679 Z-0.125000 I10.991469 J19.878262
G02 X1.455100 Y38.898200 Z-0.125000 I14.243713 J8.489653
G01 X1.455100 Y157.564200 Z-0.125000
G01 X112.712100 Y157.564200 Z-0.125000
G01 X112.712100 Y38.899200 Z-0.125000
G02 X110.384535 Y29.817682 Z-0.125000 I-16.571264 J-0.591868
G02 X101.864200 Y21.569000 Z-0.125000 I-19.511838 J11.629611
G03 X86.914514 Y14.966547 Z-0.125000 I612.312015 J-1406.661382
G03 X57.149600 Y1.592900 Z-0.125000 I6241.702284 J-13931.587228
G01 X57.149900 Y1.592000 Z-0.125000
G00 Z5.000000

(End cutting path id: path1)


(Start cutting path id: path3)
(Change tool to Default tool)

G00 Z5.000000
G00 X90.310900 Y124.005900

G01 Z-0.125000 F100.0(Penetrate)
G03 X85.375562 Y116.201897 Z-0.125000 I32.150027 J-25.794618 F200.000000
G03 X82.461810 Y107.513600 Z-0.125000 I32.272337 J-15.655749
G02 X81.294514 Y97.742734 Z-0.125000 I-4198.552159 J496.633081
G02 X79.551410 Y83.348100 Z-0.125000 I-16357.272299 J1973.467095
G02 X83.967208 Y80.171401 Z-0.125000 I-4.815857 J-11.351784
G02 X86.695200 Y74.793310 Z-0.125000 I-8.936966 J-7.914122
G01 X90.311000 Y74.793310 Z-0.125000
G01 X90.310900 Y124.005910 Z-0.125000
G01 X90.310900 Y124.005900 Z-0.125000
G00 Z5.000000

(End cutting path id: path3)


(Start cutting path id: path2)
(Change tool to Default tool)

G00 Z5.000000
G00 X57.149900 Y147.966700

G01 Z-0.125000 F100.0(Penetrate)
G03 X52.345351 Y136.861621 Z-0.125000 I14.036872 J-12.664843 F200.000000
G03 X52.255100 Y134.677500 Z-0.125000 I26.383439 J-2.184121
G03 X52.569624 Y123.294157 Z-0.125000 I206.151737 J-0.000000
G02 X53.181099 Y101.163500 Z-0.125000 I-400.173550 J-22.130657
G02 X50.419452 Y80.983962 Z-0.125000 I-75.107442 J-0.000000
G02 X42.818399 Y65.180300 Z-0.125000 I-48.158528 J13.432942
G02 X42.167381 Y64.795217 Z-0.125000 I-0.623780 J0.311713
G03 X40.525299 Y64.827300 Z-0.125000 I-1.642082 J-42.007260
G02 X37.362377 Y65.638067 Z-0.125000 I-0.000000 J6.574895
G02 X33.822609 Y71.618090 Z-0.125000 I3.281389 J5.980023
G02 X38.492600 Y77.820162 Z-0.125000 I6.453387 J0.000000
G02 X40.481099 Y78.100380 Z-0.125000 I1.988499 J-6.915354
G02 X41.395940 Y78.062215 Z-0.125000 I-0.000000 J-10.983811
G02 X42.068599 Y77.924180 Z-0.125000 I-0.240852 J-2.881677
G02 X40.625704 Y90.565816 Z-0.125000 I44819.005751 J5121.283275
G02 X38.628999 Y108.086780 Z-0.125000 R258207.931459
G03 X30.190391 Y127.442277 Z-0.125000 I-50.320222 J-10.421325
G03 X17.197799 Y138.249280 Z-0.125000 I-26.897235 J-19.123289
G01 X17.197799 Y41.544080 Z-0.125000
G01 X39.599299 Y41.544080 Z-0.125000
G03 X43.630448 Y29.699797 Z-0.125000 I29.955739 J3.587170
G03 X53.181199 Y19.230680 Z-0.125000 I30.252311 J18.007502
G02 X56.437365 Y16.263939 Z-0.125000 I-50.523929 J-58.723150
G02 X57.149999 Y14.909480 Z-0.125000 I-1.693472 J-1.755704
G02 X57.862592 Y16.263844 Z-0.125000 I2.406009 J-0.401267
G02 X61.118799 Y19.230680 Z-0.125000 I53.791672 J-55.767922
G03 X70.669402 Y29.699666 Z-0.125000 I-20.699960 J28.474958
G03 X74.700499 Y41.544080 Z-0.125000 I-25.925564 J15.431613
G01 X97.101999 Y41.544080 Z-0.125000
G01 X97.101999 Y138.249180 Z-0.125000
G03 X84.109408 Y127.442183 Z-0.125000 I13.904611 J-29.930260
G03 X75.670799 Y108.086680 Z-0.125000 I41.881623 J-29.776825
G02 X73.674153 Y90.565751 Z-0.125000 R246647.595616
G02 X72.231199 Y77.924180 Z-0.125000 I-42812.981637 J4879.743591
G02 X72.903858 Y78.062215 Z-0.125000 I0.913510 J-2.743642
G02 X73.818699 Y78.100380 Z-0.125000 I0.914841 J-10.945646
G02 X75.807271 Y77.820140 Z-0.125000 I-0.000000 J-7.195545
G02 X80.477189 Y71.618090 Z-0.125000 I-1.783468 J-6.202050
G02 X76.937320 Y65.637772 Z-0.125000 I-6.821562 J0.000000
G02 X73.774499 Y64.827000 Z-0.125000 I-3.162821 J5.763694
G03 X72.132417 Y64.794917 Z-0.125000 I-0.000000 J-42.039343
G02 X71.481399 Y65.180000 Z-0.125000 I-0.027238 J0.696796
G02 X63.880346 Y80.983839 Z-0.125000 I40.559383 J29.237369
G02 X61.118699 Y101.163300 Z-0.125000 I72.345217 J20.179461
G02 X61.730174 Y123.293946 Z-0.125000 I400.784833 J-0.000000
G03 X62.044698 Y134.677300 Z-0.125000 I-205.837405 J11.383354
G03 X61.954457 Y136.861409 Z-0.125000 I-26.476315 J0.000000
G03 X57.149898 Y147.966500 Z-0.125000 I-18.840956 J-1.559561
G01 X57.149898 Y147.966700 Z-0.125000
G01 X57.149900 Y147.966700 Z-0.125000
G00 Z5.000000

(End cutting path id: path2)


(Start cutting path id: path7)
(Change tool to Default tool)

G00 Z5.000000
G00 X23.989000 Y124.006000

G01 Z-0.125000 F100.0(Penetrate)
G02 X28.924338 Y116.201997 Z-0.125000 I-32.150027 J-25.794618 F200.000000
G02 X31.838090 Y107.513700 Z-0.125000 I-32.272337 J-15.655749
G03 X33.005385 Y97.742818 Z-0.125000 I4199.531001 J496.749350
G03 X34.748490 Y83.348100 Z-0.125000 I16361.301145 J1973.939224
G03 X30.332720 Y80.171631 Z-0.125000 I4.814958 J-11.351044
G03 X27.604700 Y74.793610 Z-0.125000 I8.936419 J-7.913940
G01 X23.988900 Y74.793610 Z-0.125000
G01 X23.989000 Y124.006010 Z-0.125000
G01 X23.989000 Y124.006000 Z-0.125000
G00 Z5.000000

(End cutting path id: path7)


(Footer)
M5
G00 X0.0000 Y0.0000
M2
(Using default footer. To add your own footer create file "footer" in the output dir.)
(end)
%
